pro/src/icons/full-list.svg

<svg xmlns="http://www.w3.org/2000/svg" width="48" height="48" fill="none"><g id="icon" fill="currentColor"><path d="M40 12H9c-1.66 0-3-1.34-3-3s1.34-3 3-3h31c1.66 0 3 1.34 3 3s-1.34 3-3 3M40 42H9c-1.66 0-3-1.34-3-3s1.34-3 3-3h31c1.66 0 3 1.34 3 3s-1.34 3-3 3M40 27H9c-1.66 0-3-1.34-3-3s1.34-3 3-3h31c1.66 0 3 1.34 3 3s-1.34 3-3 3"/></g></svg>

<svg width="48" height="48" viewBox="0 0 48 48" fill="none" xmlns="http://www.w3.org/2000/svg">
    <g id="icon">
        <path d="M 40 12 H 9 C 7.34 12 6 10.66 6 9 C 6 7.34 7.34 6 9 6 H 40 C 41.66 6 43 7.34 43 9 C 43 10.66 41.66 12 40 12 Z" fill="currentColor"/>
        <path d="M 40 42 H 9 C 7.34 42 6 40.66 6 39 C 6 37.34 7.34 36 9 36 H 40 C 41.66 36 43 37.34 43 39 C 43 40.66 41.66 42 40 42 Z" fill="currentColor"/>
        <path d="M 40 27 H 9 C 7.34 27 6 25.66 6 24 C 6 22.34 7.34 21 9 21 H 40 C 41.66 21 43 22.34 43 24 C 43 25.66 41.66 27 40 27 Z" fill="currentColor"/>
    </g>
</svg>
